X: 233
T: Five Houses (jig)
N: 062176
C: BB 9/06
L: 1/8
M: 6/8
R: jig
Q: 340
K: D
e|"Bm"fdB "D"A2F|"G"GBA "D"FED|"Bm"fdB "D"AFA|"Bm"Bdf "A"e2e|
"Bm"fdB A2F|"G"GBA "D"FED|"G"GBd "D"AGF|"A7"GFE "D"D2 :|
e|"D"fdf "A"ecA|"D"fdf "A"ecA|"G"Bcd "Em"efg |"D"faf "A"e2e|
"D"fdf "A"ecA|"G"BGB "A"ABc|"D"dfa "G"bgf|"A"ece "D"d2 :|
%%%%%%%%%%%%%%%%%%%
